dist/img/storage_FILL1_wght700_GRAD200_opsz48 1.svg

<svg width="25" height="25" viewBox="0 0 25 25" fill="none" xmlns="http://www.w3.org/2000/svg">
<g opacity="0.5">
<path d="M2.31763 22.2917V17.2917H22.7083V22.2917H2.31763ZM4.68742 20.8594H6.82284V18.6979H4.68742V20.8594ZM2.31763 7.70834V2.70834H22.7083V7.70834H2.31763ZM4.68742 6.27605H6.82284V4.11459H4.68742V6.27605ZM2.31763 15V10H22.7083V15H2.31763ZM4.68742 13.5938H6.82284V11.4063H4.68742V13.5938Z" fill="#00E0FF"/>
</g>
</svg>

<svg width="25" height="25" fill="none" xmlns="http://www.w3.org/2000/svg"><path d="M2.318 22.292v-5h20.39v5H2.318Zm2.37-1.433h2.135v-2.161H4.687v2.161ZM2.317 7.71v-5h20.39v5H2.318Zm2.37-1.433h2.135V4.115H4.687v2.161ZM2.317 15v-5h20.39v5H2.318Zm2.37-1.406h2.135v-2.188H4.687v2.188Z" fill="#00E0FF" opacity=".5"/></svg>
